P2
22 21
255
93 109 116 117 117 117 116 117 116 116 116 116 116 116 115 115 114 112 111 110 109 106
119 126 130 129 207 232 229 227 225 223 220 218 215 213 211 208 206 184 124 122 119 118
127 130 130 208 90 137 183 148 211 211 21 86 222 222 222 195 156 233 178 121 122 124
137 137 138 232 137 137 183 148 85 21 21 18 86 154 222 233 156 233 192 123 120 120
145 145 144 229 137 137 183 148 21 21 21 18 18 18 154 195 195 233 186 121 122 123
141 142 142 227 140 140 195 69 11 11 11 16 16 16 16 177 241 241 182 126 125 126
139 140 143 225 140 195 140 11 127 69 11 16 129 129 16 114 241 241 177 135 135 135
141 143 143 223 140 195 30 127 185 69 11 16 186 186 129 50 177 177 173 140 139 138
140 140 140 220 140 140 30 185 185 69 11 16 129 186 186 50 50 177 168 140 139 138
130 130 130 218 165 130 95 164 164 31 31 9 76 210 210 166 26 166 163 138 138 136
133 132 130 215 165 165 165 231 98 31 31 9 76 210 210 236 26 166 158 133 132 130
131 130 129 213 165 165 130 231 31 31 164 9 9 143 210 166 166 236 154 130 129 128
132 129 127 211 95 95 200 231 31 31 231 143 9 76 210 166 236 236 149 135 133 130
127 126 126 208 200 200 200 244 49 114 244 229 100 35 100 237 237 237 144 131 128 128
132 134 135 206 150 200 200 244 49 114 114 164 229 35 35 126 181 237 139 128 128 129
144 144 145 188 99 99 200 179 49 179 179 164 229 100 35 126 126 126 133 131 132 132
140 140 140 140 182 192 186 182 177 173 168 163 158 154 149 144 139 134 134 135 135 135
138 139 139 139 139 139 137 136 134 133 133 131 128 127 128 129 129 131 133 135 137 138
139 138 136 135 133 131 129 128 128 127 127 127 127 129 131 133 134 136 137 138 136 135
136 136 136 133 131 128 126 126 126 125 126 128 130 131 131 132 133 134 133 132 131 131
132 130 129 129 127 129 131 133 133 133 133 133 132 132 132 131 131 130 130 130 129 129
